X: 8762
T: Cuckold Come Out Of The Amrey
R: polka
M: 2/4
K: Adorian
A/B/c/A/ cd|e>d eg|GG B>c|d/B/A/G/ B/c/d/B/|
A/B/c/A/ cd|e>d eg|dc/B/ gB|A2 e2:|
|:g>e cg|ec e/f/g/e/|d/c/B/A/ Gd|BG B/c/d/B/|
g/f/e/d/ c/d/e/f/|gc e/f/g/e/|dc/B/ gB|A2 e2:|

